http_data/img/icon_battery_100.svg

<?xml version="1.0" encoding="UTF-8" standalone="no"?>
<svg
   xmlns:dc="http://purl.org/dc/elements/1.1/"
   xmlns:cc="http://creativecommons.org/ns#"
   xmlns:rdf="http://www.w3.org/1999/02/22-rdf-syntax-ns#"
   xmlns:svg="http://www.w3.org/2000/svg"
   xmlns="http://www.w3.org/2000/svg"
   xmlns:sodipodi="http://sodipodi.sourceforge.net/DTD/sodipodi-0.dtd"
   xmlns:inkscape="http://www.inkscape.org/namespaces/inkscape"
   version="1.1"
   x="0px"
   y="0px"
   viewBox="0 0 99.932999 37.672001"
   enable-background="new 0 0 100 100"
   xml:space="preserve"
   id="svg6739"
   inkscape:version="0.91 r13725"
   sodipodi:docname="icon_battery_100.svg"
   width="99.932999"
   height="37.672001"><metadata
     id="metadata6761"><rdf:RDF><cc:Work
         rdf:about=""><dc:format>image/svg+xml</dc:format><dc:type
           rdf:resource="http://purl.org/dc/dcmitype/StillImage" /></cc:Work></rdf:RDF></metadata><defs
     id="defs6759" /><sodipodi:namedview
     pagecolor="#ffffff"
     bordercolor="#666666"
     borderopacity="1"
     objecttolerance="10"
     gridtolerance="10"
     guidetolerance="10"
     inkscape:pageopacity="0"
     inkscape:pageshadow="2"
     inkscape:window-width="2556"
     inkscape:window-height="1371"
     id="namedview6757"
     showgrid="false"
     fit-margin-top="0"
     fit-margin-left="0"
     fit-margin-right="0"
     fit-margin-bottom="0"
     inkscape:zoom="1.888"
     inkscape:cx="-89.863508"
     inkscape:cy="6.337"
     inkscape:window-x="0"
     inkscape:window-y="30"
     inkscape:window-maximized="0"
     inkscape:current-layer="svg6739" /><g
     id="g6741"
     transform="translate(-0.033,-31.165)"><path
       d="M 99.9,43.744 C 99.714,42.993 99.126,42.405 98.376,42.22 l -0.067,-0.067 -3.573,0 0,-7.325 c 0,-2.02 -1.644,-3.663 -3.662,-3.663 l -87.379,0 c -2.019,0 -3.662,1.644 -3.662,3.663 l 0,30.347 c 0,2.02 1.644,3.662 3.662,3.662 l 87.378,0 c 2.019,0 3.662,-1.643 3.662,-3.662 l 0,-7.325 3.573,0 0.067,-0.067 c 0.75,-0.187 1.339,-0.774 1.524,-1.525 l 0.067,-0.066 0,-12.38 -0.066,-0.068 z m -7.258,21.43 c 0,0.865 -0.704,1.569 -1.569,1.569 l -87.378,0 c -0.865,0 -1.569,-0.704 -1.569,-1.569 l 0,-30.347 c 0,-0.866 0.704,-1.57 1.569,-1.57 l 87.378,0 c 0.865,0 1.569,0.704 1.569,1.57 l 0,7.325 0,15.696 0,7.326 z"
       id="path6743"
       inkscape:connector-curvature="0" /><polygon
       points="40.005,35.351 22.006,35.351 40.005,64.65 58.126,64.65 "
       id="polygon6745" /><polygon
       points="61.362,35.351 43.362,35.351 61.362,64.65 79.482,64.65 "
       id="polygon6747" /><path
       d="m 5.527,35.351 c -0.868,0 -1.57,0.702 -1.57,1.569 l 0,26.161 c 0,0.868 0.7,1.569 1.57,1.569 l 31.235,0 -18.05,-29.3 -13.185,0 z"
       id="path6749"
       inkscape:connector-curvature="0" /><path
       d="m 89.137,35.351 -24.421,0 18.061,29.3 6.36,0 c 0.869,0 1.57,-0.701 1.57,-1.569 l 0,-26.162 c 0.001,-0.869 -0.701,-1.569 -1.57,-1.569 z"
       id="path6751"
       inkscape:connector-curvature="0" /></g></svg>

<svg xmlns="http://www.w3.org/2000/svg" xmlns:xlink="http://www.w3.org/1999/xlink" version="1.1" x="0px" y="0px" viewBox="0 0 100 125" enable-background="new 0 0 100 100" xml:space="preserve"><g><path d="M99.9,43.744c-0.186-0.751-0.774-1.339-1.524-1.524l-0.067-0.067h-3.573v-7.325c0-2.02-1.644-3.663-3.662-3.663H3.695   c-2.019,0-3.662,1.644-3.662,3.663v30.347c0,2.02,1.644,3.662,3.662,3.662h87.378c2.019,0,3.662-1.643,3.662-3.662v-7.325h3.573   l0.067-0.067c0.75-0.187,1.339-0.774,1.524-1.525l0.067-0.066V43.812L99.9,43.744z M92.642,65.174c0,0.865-0.704,1.569-1.569,1.569   H3.695c-0.865,0-1.569-0.704-1.569-1.569V34.827c0-0.866,0.704-1.57,1.569-1.57h87.378c0.865,0,1.569,0.704,1.569,1.57v7.325   v15.696V65.174z"/><polygon points="22.006,35.351 40.005,64.65 58.126,64.65 40.005,35.351  "/><polygon points="43.362,35.351 61.362,64.65 79.482,64.65 61.362,35.351  "/><path d="M5.527,35.351c-0.868,0-1.57,0.702-1.57,1.569v26.161c0,0.868,0.7,1.569,1.57,1.569h31.235l-18.05-29.3H5.527z"/><path d="M89.137,35.351H64.716l18.061,29.3h6.36c0.869,0,1.57-0.701,1.57-1.569V36.92C90.708,36.051,90.006,35.351,89.137,35.351z"/></g><text x="0" y="115" fill="#000000" font-size="5px" font-weight="bold" font-family="'Helvetica Neue', Helvetica, Arial-Unicode, Arial, Sans-serif">Created by Igor Filipe</text><text x="0" y="120" fill="#000000" font-size="5px" font-weight="bold" font-family="'Helvetica Neue', Helvetica, Arial-Unicode, Arial, Sans-serif">from the Noun Project</text></svg>
